X: 1988
T: As I Went Out Upon The Ice
R: polka
M: 2/4
K: Adorian
|:B/d/|eA BA|eA AB/d/|eA BA|G>A Bd|
eA BA|eA B>A|G>A B/c/d|BA A:|
|:B/d/|ea a>b|ag ed|B/c/d ef|ga/g/ f/e/d|
ea- ab|a>g ed|Bd gB|A2 A:|

